X:70
T:Gabarus Lake
R:jig
C:Paul S. Cranford
O:Cape Breton Island
S:http://www.cranfordpub.com
D:currently unrecorded
B:currently unpublished in book form
Z:psc
H:                                                        copyrights Cranford Publications, SOCAN
L:1/8
Q:300
M:6/8
K:G
C|B,DG BAG|EGc efg|dge dBG|FA,B, CB,A,|
G,GA BAG|EGc efg|dge dBA|BGG G2:|
|:B|dba gdB|cBc efg|dge dBG|[1FDB, CB,A,|
G,ba gdB|cBc efg|fed cBA|BGG G2:|
[2FA,B, CB,A,|G,GA BAG|cde ABc|dgd edc|BGG G2|]
